X: 13356
T: Flax In Bloom, The
R: reel
M: 4/4
K: Dmajor
efaf dfaf|gabg ecAb|affa dedB|A2ge fd~d2|
faaf dfaf|gabg efdB|AFFG A2d'b|afea fd~d2:|

